X: 30
T:Con Cassidy's
R:Jig
S:Charles de Lint
Z:Added by Alf Warnock
M:6/8
L:1/8
K:G
A|BAB cBc|dgg d2g|fed cAF|Ggg d2c|
BAB cBc|dgg dgg|fed cAF|[1 G3 G2A:|[2 G3 G2B||
g2G f2G|efg d2c|BA^G Aag|fe^d efg|
a2f gfe|fed fga|gfe def|gGG G2:|

